X: 310
T: Ship in the Clouds
B: canberra pickers and fiddlers
B: tunes
M:C|
L:1/8
R: reel
Q: 1/4=100
K:D
V:1 
fg||a2 fg a2 ab|agfe d2 a(b|b)aga b2b2|agfe d2 f(a|a2) a2 a3 b|
agfe d3(d |: d)ed=c Bc d2|g4 g2 AB|=cBcA B2A2|GFGA B=cdB|
AGFE D2 e(f|f)e f2 e(c [c2e2])|1 [d3f3] (d[d3f3]) (d:|2 [d3f3] d [d4f4]||
% abcbook-tune_id 63da59346028cd3dcfdb7dd5
% abcbook-tune_composer_id 
% abcbook-link-0 https://www.youtube.com/watch?v=7gTKDKNnTq8
% abcbook-boost 0
% abcbook-difficulty 0
% abcbook-tags canberra pickers and fiddlers,old time tunes,© free
% abcbook-tablature 
% abcbook-transpose 
% abcbook-tuning ADAE
% abcbook-lastupdated 1675254068533
% abcbook-src-url https://tunebook.net/scrape/tunes.abc
% abcbook-soundfonts 
% abcbook-repeats 1
%%gchordfont "itim-music,Itim" 20

